libs/ui/packages/crypto-icons/src/svg/CRPT.svg

<svg width="24" height="24" viewBox="0 0 24 24" fill="none">
<path d="M16.7498 7.308C15.691 6.4085 14.3455 5.91718 12.9562 5.92275C9.81 5.92275 7.21875 8.4105 7.00275 11.5905H6.38625C6.60225 8.0325 9.471 5.29275 12.9562 5.29275C14.499 5.29275 15.9788 5.85975 17.1818 6.86775L16.7498 7.308ZM16.5338 9.38625C16.1288 8.81377 15.5928 8.34645 14.9704 8.02328C14.3481 7.70011 13.6575 7.53047 12.9562 7.5285C10.5195 7.5285 8.5455 9.54375 8.5455 12C8.5455 14.487 10.5195 16.503 12.9555 16.503C14.37 16.503 15.6997 15.813 16.5338 14.6445L16.9665 15.0855C16.0095 16.3763 14.529 17.133 12.9562 17.133C10.1797 17.133 7.92825 14.8335 7.92825 12C7.92825 9.198 10.1797 6.8985 12.9562 6.8985C13.7384 6.90172 14.5088 7.08869 15.2054 7.44435C15.902 7.8 16.5052 8.31438 16.9665 8.946L16.5338 9.38625ZM17.2432 7.7805L17.676 7.3395C17.8298 7.497 17.9535 7.6545 18.0765 7.812L17.6445 8.25225C17.5197 8.08736 17.3857 7.92961 17.2432 7.77975V7.7805ZM12.9255 18.738C9.44025 18.738 6.5715 15.999 6.3555 12.441H6.972C7.188 15.621 9.77925 18.1088 12.9255 18.1088C14.313 18.1088 15.6405 17.6363 16.719 16.7235L17.151 17.1637C15.9749 18.1749 14.4766 18.7334 12.9255 18.7388V18.738ZM17.2432 16.251C17.3977 16.0935 17.5207 15.936 17.6445 15.7785L18.0765 16.2188C17.9527 16.3763 17.8298 16.5337 17.676 16.6912L17.2432 16.251ZM5.49225 12C5.49225 16.188 8.85375 19.62 12.9562 19.62C15.177 19.62 17.274 18.6442 18.6937 16.8495L19.125 17.2897C17.583 19.1797 15.3622 20.25 12.9562 20.25C8.484 20.25 4.875 16.5338 4.875 12C4.875 7.434 8.51475 3.75 12.9562 3.75C15.33 3.75 17.5837 4.82025 19.125 6.71025L18.693 7.15125C17.274 5.388 15.177 4.38 12.9555 4.38C8.853 4.38 5.49225 7.812 5.49225 12Z" fill="#00BDCD"/>
</svg>

<svg width="24" height="24" viewBox="0 0 24 24" fill="none"><path fill="#00bdcd" d="M16.75 7.308a5.82 5.82 0 0 0-3.794-1.385c-3.146 0-5.737 2.488-5.953 5.668h-.617c.216-3.558 3.085-6.298 6.57-6.298 1.543 0 3.023.567 4.226 1.575zm-.216 2.078a4.4 4.4 0 0 0-3.578-1.857c-2.436 0-4.41 2.015-4.41 4.471 0 2.487 1.974 4.503 4.41 4.503a4.4 4.4 0 0 0 3.578-1.858l.433.44c-.957 1.291-2.438 2.048-4.01 2.048-2.777 0-5.029-2.3-5.029-5.133 0-2.802 2.252-5.101 5.028-5.101a4.99 4.99 0 0 1 4.01 2.047zm.71-1.605.432-.441c.154.157.277.314.4.472l-.431.44a6 6 0 0 0-.402-.472m-4.318 10.957c-3.486 0-6.354-2.739-6.57-6.297h.616c.216 3.18 2.807 5.668 5.953 5.668a5.82 5.82 0 0 0 3.794-1.386l.432.44a6.52 6.52 0 0 1-4.225 1.576zm4.317-2.487c.155-.158.278-.315.402-.473l.431.44c-.123.158-.246.316-.4.473zM5.493 12c0 4.188 3.36 7.62 7.463 7.62a7.26 7.26 0 0 0 5.738-2.77l.431.44c-1.542 1.89-3.763 2.96-6.169 2.96-4.472 0-8.081-3.716-8.081-8.25 0-4.566 3.64-8.25 8.081-8.25 2.374 0 4.628 1.07 6.169 2.96l-.432.441c-1.419-1.763-3.516-2.771-5.738-2.771-4.102 0-7.463 3.432-7.463 7.62"/></svg>
